images/logo.svg

<svg width="78" height="25" viewBox="0 0 78 25" fill="none" xmlns="http://www.w3.org/2000/svg">
<path d="M72.4945 16.5766C70.8 16.5766 69.243 15.5691 68.8766 14.1037L77.8983 12.6382C77.8983 9.02037 75.288 7.00537 72.0365 7.00537C68.6018 7.00537 66.0373 9.47833 66.0373 12.9588C66.0373 16.3935 68.556 18.9122 72.4487 18.9122C74.4637 18.9122 76.0665 18.2711 77.1198 17.0346L75.7001 15.3402C74.7842 16.1187 73.8225 16.5766 72.4945 16.5766ZM71.9907 9.15776C73.4104 9.15776 74.5095 9.89049 75.0132 10.9896C75.0132 10.9896 69.7925 11.8139 68.7392 11.9971C68.9682 10.1653 70.2047 9.15776 71.9907 9.15776Z" fill="current-color"/>
<path d="M42.4983 16.4851C40.6665 16.5309 39.2468 15.0196 39.1095 13.0046C39.1095 10.4858 40.8497 9.34095 42.5441 9.34095C44.1928 9.34095 45.933 10.44 45.9788 12.7756C46.0246 13.1878 46.0246 16.3935 42.4983 16.4851ZM46.162 7.09697V8.60822C46.0704 8.51663 45.9788 8.42504 45.8872 8.33345C45.2919 7.69231 44.3301 7.23436 43.3226 7.05117C42.9563 7.00538 42.5441 6.95958 42.132 6.95958C41.903 6.95958 41.6282 6.95958 41.3992 7.00538C38.4225 7.32595 36.3617 9.56993 36.3617 12.8672C36.3617 13.0504 36.3617 13.2794 36.4075 13.4626C36.6823 16.714 39.0179 18.7748 42.2235 18.7748C43.7806 18.7748 45.2003 18.2711 46.0704 17.172C46.162 17.9963 46.0246 19.416 45.3834 20.2403C44.8339 20.9272 43.5516 21.6142 42.3151 21.6142C41.5366 21.6142 40.5291 21.5226 39.7506 21.2936C38.9721 21.0646 38.5141 20.8356 38.0104 20.4235L36.8197 22.3927C38.6973 23.6292 40.6207 24.0871 42.4525 24.0413C45.7498 23.9497 48.2228 21.6142 48.5891 18.6375C48.6349 18.1337 48.7265 17.4926 48.7265 16.8972V7.09697H46.162Z" fill="current-color"/>
<path d="M58.1146 16.5766C56.4202 16.5766 54.8631 15.5691 54.4967 14.1037L63.5185 12.6382C63.5185 9.02037 60.9081 7.00537 57.6566 7.00537C54.222 7.00537 51.6574 9.47833 51.6574 12.9588C51.6574 16.3935 54.1762 18.9122 58.0688 18.9122C60.0838 18.9122 61.6866 18.2711 62.7399 17.0346L61.3203 15.3402C60.4044 16.1187 59.3969 16.5766 58.1146 16.5766ZM57.6108 9.15776C59.0305 9.15776 60.1296 9.89049 60.6333 10.9896C60.6333 10.9896 55.4127 11.8139 54.3594 11.9971C54.5425 10.1653 55.779 9.15776 57.6108 9.15776Z" fill="current-color"/>
<path d="M12.319 7.09697V18.6833H9.75446V17.172C8.83855 18.2711 7.51048 18.8206 5.90763 18.8206C2.47296 18.8664 0 16.5309 0 12.913C0 9.29516 2.47296 6.95958 5.86184 6.95958C7.32729 6.95958 8.65537 7.46333 9.57128 8.51663V7.09697H12.319ZM9.61707 12.913C9.61707 10.7148 8.15162 9.29516 6.1824 9.29516C4.21319 9.29516 2.74774 10.7148 2.74774 12.913C2.74774 15.1112 4.21319 16.5309 6.1824 16.5309C8.15162 16.5309 9.61707 15.1112 9.61707 12.913Z" fill="current-color"/>
<path d="M15.8911 0.0444336L18.593 1.05194V18.6832H15.8911V0.0444336Z" fill="current-color"/>
<path d="M25.5081 16.3477V9.56995H27.6147V7.18858H25.5539V3.70812L22.8062 2.65482V7.18858H20.7454V9.56995H22.8062V18.7291H28.1185V16.3477H25.5081Z" fill="current-color"/>
<path d="M30.683 2.42583C30.683 1.50992 31.4157 0.77719 32.4232 0.77719C33.4308 0.77719 34.1635 1.46412 34.1635 2.33424C34.1635 3.29595 33.4308 4.02868 32.4232 4.02868C31.4157 4.07447 30.683 3.34174 30.683 2.42583Z" fill="current-color"/>
<path d="M31.0494 5.76892L33.7513 6.77643V18.7291H31.0494V5.76892Z" fill="current-color"/>
</svg>

<svg width="78" height="25" fill="none" xmlns="http://www.w3.org/2000/svg"><path d="M72.495 16.577c-1.695 0-3.252-1.008-3.618-2.473l9.021-1.466c0-3.618-2.61-5.633-5.861-5.633-3.435 0-6 2.473-6 5.954 0 3.434 2.519 5.953 6.412 5.953 2.015 0 3.618-.64 4.67-1.877L75.7 15.34c-.916.779-1.877 1.237-3.206 1.237zm-.504-7.42c1.42 0 2.519.733 3.022 1.833 0 0-5.22.824-6.274 1.007.23-1.832 1.466-2.84 3.252-2.84zm-29.493 7.328c-1.831.046-3.251-1.465-3.389-3.48 0-2.52 1.74-3.664 3.435-3.664 1.649 0 3.389 1.099 3.435 3.435.046.412.046 3.617-3.48 3.71zm3.664-9.388v1.511l-.275-.275c-.595-.64-1.557-1.099-2.564-1.282a9.67 9.67 0 00-1.191-.091c-.229 0-.504 0-.733.045-2.977.32-5.037 2.565-5.037 5.862 0 .183 0 .412.045.596.275 3.251 2.61 5.312 5.817 5.312 1.557 0 2.976-.504 3.846-1.603.092.824-.045 2.244-.687 3.068-.55.687-1.831 1.374-3.068 1.374-.778 0-1.786-.091-2.564-.32-.779-.23-1.237-.458-1.74-.87l-1.191 1.969c1.877 1.236 3.8 1.694 5.633 1.648 3.297-.091 5.77-2.427 6.136-5.404.046-.503.138-1.144.138-1.74v-9.8h-2.565zm11.953 9.48c-1.695 0-3.252-1.008-3.618-2.473l9.022-1.466c0-3.618-2.61-5.633-5.862-5.633-3.435 0-6 2.473-6 5.954 0 3.434 2.52 5.953 6.412 5.953 2.015 0 3.618-.64 4.67-1.877L61.32 15.34c-.916.779-1.923 1.237-3.205 1.237zm-.504-7.42c1.42 0 2.519.733 3.022 1.833 0 0-5.22.824-6.274 1.007.183-1.832 1.42-2.84 3.252-2.84zm-45.292-2.06v11.586H9.754v-1.511c-.915 1.1-2.244 1.649-3.846 1.649C2.473 18.866 0 16.53 0 12.913 0 9.295 2.473 6.96 5.862 6.96c1.465 0 2.793.503 3.71 1.557v-1.42h2.747zm-2.702 5.816c0-2.198-1.465-3.618-3.435-3.618-1.969 0-3.434 1.42-3.434 3.618s1.465 3.618 3.434 3.618c1.97 0 3.435-1.42 3.435-3.618zM15.891.044l2.702 1.008v17.631h-2.702V.044zm9.617 16.304V9.57h2.107V7.189h-2.061v-3.48l-2.748-1.054v4.534h-2.06V9.57h2.06v9.16h5.313v-2.382h-2.61zm5.175-13.922c0-.916.733-1.649 1.74-1.649 1.008 0 1.74.687 1.74 1.557 0 .962-.732 1.695-1.74 1.695-1.007.045-1.74-.687-1.74-1.603zm.367 3.343l2.701 1.007V18.73H31.05V5.77z" fill="current-color"/></svg>
